X: 1
T: Lassies of Dunse
R: jig
Z: 1997 by John Chambers <jc:trillian.mit.edu>
N: Hardie #292
M: 6/8
L: 1/8
K: D
|: f/g/ \
| "D"a>fd "A7"ecA | "D"d2A A2=c | "G"B>GB "D"AGF | "Em"E3- "A7"E2f/g/ |
| "D"a>fd "A7"ecA | "D"d2A A2G | "G"F>DF "A7"ECE | "D"D3- D2 :|
|: F/G/ \
| "D"A>FA "G"BGB | "D"A>FA d2A | "G"B>GB "D"AGF | "Em"E3- "A7"E2f/g/ |
| "D"a>fa "A7"geg | "Bm"fdf "A7"ecA | "G"B/c/dB "A7"c/d/ec | "D"d3- d2 :|
